X:262
T:The God of Abraham Praise
%%stretchlast false
M:4/4
L:1/4
K:F clef=C1
"^iii"[A,,A,] "^vi"[D,D] "^V/vi"[A,,_D,A,E] "^vi"[D,A,F] | "^ii¹"[B,,D,DG] "^V/vi"[A,,E,_DA]3 | "^vi"[D,F,A,F] "^ii¹"[B,,D,DG] "^I¹"[A,,F,CA] "^ii7"[G,,F,DB] | "^V"[C,E,Cc] "^I"[F,,F,CA]3 | "^V"[C,G,CE] "^I¹"[A,,F,CF] "^vii°¹"[G,,E,B,G] "^I"[F,,F,A,A] | "^IV"[B,,F,DB] "^I¹"[A,,F,Cc] "^V7"[C,G,B,E] "^vi"[D,F,A,F] | "^ii7"[G,,F,DB] "^I²"[C,F,CA]2 "^V"[C,E,CG] | "^V7"[C,E,B,G] "^I"[F,,F,A,F]3 | [F,A,CF] [F,CA] [F,,F,A,A] "^I¹"[A,,F,CA] | "^♭vø7"[=B,,F,DA] "^V"[C,E,EG]3 | "^I¹"[A,,F,CF]/ "^Imaj7¹"[A,,F,CE]/ "^IV"[B,,F,B,D]/ [B,,F,B,E]/ [B,,D,B,F]/ "^ii¹"[B,,D,B,G]/ "^I"[F,,F,A,A] | "^ii7"[G,,F,B,D] "^vi"[A,,E,A,D] "^III"[A,,E,A,_D]2 | "^V/vi"[A,,_D,A,] "^vi¹"[F,,D,A,D] "^V/vi"[A,,_D,A,E] "^vi"[D,A,F] | "^V"[C,E,CG] "^I"[F,,F,CA] "^ii7¹"[B,,F,DG]/ "^IVmaj7"[B,,F,DA]/ "^ii"[G,,G,DB] | [G,,B,DA]/ [G,,B,DG]/ "^vi²"[A,,A,DF]2 "^III"[A,,A,_DE] | "^III7"[A,,G,_DE] "^vi"[D,F,D]3 |]
